X: 1273
T: The Bridge of Balater
%R: strathspey
B: Niel Gow & Sons "A Collection of Strathspey Reels, etc." v.1 p.27 #3
Z: 2022 John Chambers <jc:trillian.mit.edu>
M: C
L: 1/8
K: C
% - - - - - - - - - -
V: 1 staves=2
E | C>EG>A c<GA>a | g>cg>e{e}d2d>e | C>EG>A c>GA>a | g<cTg>e c2c :| e/f/ | g>ce>c g>ce>a | g<cg>e {e}d2Tde/f/ |
g>ce>c g>ce>a | g<cTg>e {d}c2Tce/f/ || g>ce>c g>ce>a | g<cTg>e {e}d2Td>e | C>E G>A c>GA>a | g<cTg>e {e}c2-c |]
% - - - - - - - - - -
% Voice 2 preserves the staff layout in the book.
V: 2 clef=bass middle=d
z | c2c2 c2c2 | c2c2 d2d2 | c2c2 c2c2 | g2G2 c2c :| z | c2c2 c2c2 | c2c2 d2d2 |
c2c2 c2f2 | g2G2 c2c2 || c2c2 c2c2 | c2c2 d2d2 | c2c2 c2f2 | g2G2 c2c |]


